X:1
T:Bradford, CM
T:Arranged from George F. Handel, 1741
T:Bradford, CM
T:Public Domain
C:Arranged from George F. Handel, 1741
Z:Public Domain
%%score ( 1 2 ) ( 3 4 )
L:1/8
M:3/4
K:D
V:1 treble 
V:2 treble 
V:3 bass 
V:4 bass 
V:1
 [DA]2 | [Dd]4 (F>E) | D4 [DB]2 | G3 F [CG]2 | [DF]4 [EA]2 | [Fd]3 [Ee] ([Ec][FB]) | (A3 B) (ED) | %7
 [CA]4 [FA]2 | [Fd]4 (F>E) | D4 [DB]2 | (D2 C2) [DF]2 | [CE]4 [CA]2 | D4 [EG]2 | (F3 G) [CE]2 | %14
 D4 |] %15
V:2
 x2 | x4 C2 | x6 | D4 x2 | x6 | x6 | E4 ^G2 | x6 | x4 C2 | x6 | G4 x2 | x6 | x6 | D4 x2 | D4 |] %15
V:3
 [D,F,]2 | [D,F,]4 [A,,G,]2 | [B,,F,]4 G,2 | [E,B,]4 [A,,A,]2 | [D,A,]4 [C,A,]2 | %5
 (A,2 ^G,2) ([C,A,][D,D]) | (C3 D) [E,B,]2 | [A,,A,]4 [D,A,]2 | [D,A,]4 [A,,G,]2 | [B,,F,]4 G,2 | %10
 (B,2 G,2) [D,A,]2 | [A,,A,]4 [A,,G,]2 | [B,,F,]4 [G,,B,]2 | [A,,A,]4 [A,,G,]2 | [D,F,]4 |] %15
V:4
 x2 | x6 | x6 | x6 | x6 | B,,4 x2 | E,4 x2 | x6 | x6 | x6 | E,4 x2 | x6 | x6 | x6 | x4 |] %15

